_editor/libs/builder/icons/components/checkbox.svg

<svg height="32" viewBox="0 0 32 32" width="32" xmlns="http://www.w3.org/2000/svg"><path d="m16.084 0c-8.836 0-16 7.164-16 16s7.164 16 16 16 16-7.164 16-16-7.164-16-16-16zm0 30c-7.72 0-14-6.28-14-14s6.28-14 14-14 14 6.28 14 14-6.282 14-14 14zm7.008-20.364c-.646-.424-1.514-.242-1.938.406l-6.752 10.318-3.228-2.988c-.568-.524-1.454-.49-1.98.078s-.49 1.452.078 1.978l4.462 4.128c.016.014.036.018.052.032.04.032.064.076.106.106.06.04.128.048.192.076.076.036.15.07.23.092.078.02.154.03.234.036.114.012.224.012.336-.004.046-.008.09-.02.136-.032.138-.034.266-.088.392-.164.022-.014.04-.03.062-.044.082-.056.17-.098.24-.174.05-.054.072-.124.112-.184.002-.002.006-.004.006-.006l7.664-11.714c.424-.648.242-1.516-.404-1.94z"/></svg>

<?xml version="1.0" encoding="utf-8"?> <!-- Generator: IcoMoon.io --> <!DOCTYPE svg PUBLIC "-//W3C//DTD SVG 1.1//EN" "http://www.w3.org/Graphics/SVG/1.1/DTD/svg11.dtd"> <svg width="32" height="32" viewBox="0 0 32 32" xmlns="http://www.w3.org/2000/svg" xmlns:xlink="http://www.w3.org/1999/xlink" fill="#000000"><g><path d="M 16.084,0c-8.836,0-16,7.164-16,16s 7.164,16, 16,16s 16-7.164, 16-16S 24.92,0, 16.084,0z M 16.084,30c-7.72,0-14-6.28-14-14 s 6.28-14, 14-14s 14,6.28, 14,14S 23.802,30, 16.084,30zM 23.092,9.636c-0.646-0.424-1.514-0.242-1.938,0.406L 14.402,20.36L 11.174,17.372 C 10.606,16.848, 9.72,16.882, 9.194,17.45S 8.704,18.902, 9.272,19.428l 4.462,4.128c 0.016,0.014, 0.036,0.018, 0.052,0.032 c 0.040,0.032, 0.064,0.076, 0.106,0.106c 0.060,0.040, 0.128,0.048, 0.192,0.076c 0.076,0.036, 0.15,0.070, 0.23,0.092 c 0.078,0.020, 0.154,0.030, 0.234,0.036c 0.114,0.012, 0.224,0.012, 0.336-0.004c 0.046-0.008, 0.090-0.020, 0.136-0.032 c 0.138-0.034, 0.266-0.088, 0.392-0.164c 0.022-0.014, 0.040-0.030, 0.062-0.044c 0.082-0.056, 0.17-0.098, 0.24-0.174 c 0.050-0.054, 0.072-0.124, 0.112-0.184c 0.002-0.002, 0.006-0.004, 0.006-0.006l 7.664-11.714C 23.92,10.928, 23.738,10.060, 23.092,9.636z"></path></g></svg>
